X:188
T:Something. JGi.188
M:6/8
L:1/8
Q:1/4=90
S:Joshua Gibbons MS,1823,Tealby,Lincs.
N: Semi-quavers as in MS
R:
O:Tealby,Lincolnshire
Z:VMP/R.Greig, 2009
K:G
D|G2GG2B|d2BG2G|A2A A/G/ A|
B2GE2D|G2GG2B|d2B/A/G c2B|A/G/F G3||
d|e2de2d|e2fg2{f}e|d2BA2G|
B2GE2D|G2GG2B|d2B/A/G c2B|A/G/F G3||

